X:213
T:Gentle Ann. RH.213
R:Reel
S:Rev.R.Harrison’s MS,c1815,Cumbria
O:England
A:Temple Sowerby,Cumbria
Z:vmp.Simon Wilson. Review PJH, 2008.
M:2/4
L:1/8
Q:1/4=120
K:D
D>EDd|AFAd|D>EDd|AF G/F/E/D/|\
D>EDd|AFAd|ed e/g/f/e/|ddd2:|!
|:fd de/f/|gfed|cAeA|cAdg|\
fd de/f/|gfed|cd e/g/f/e/|d/d/dd2:|

